X: 1
T: I Ha'e Laid A Herring In Salt
M: 6/8
L: 1/8
R: jig
K: Amaj
|:C2E E2A|FAE F3|EFG A2B|c2d e3|
C2E E2A|FAE F2d|cec dcB|AFE E3:|
|:cBc d2d|ede f3|F2B Bcd|cBA GFE|
CEE E2A|FAE F2d|cfe dcB|AFE E3:|
